X:187
T:Drunken Wives of Fochabers, The
R:Strathspey
B:The Athole Collection
M:C
L:1/8
K:G Minor
A|D/D/D D2 F>GA>F|G/G/G G>A B>GA>d|D/D/D D>E F>G A<c|
d>fc>f A<GG:|
=e|f>dc>A f>ga>g|g/g/g g>a b>ga>g|f>dc>A f<g a>g|f>dc>A B<G G>=e|
f>dc>A f>ga>f|g/g/g g>a b>ga>g|f>dc>A f>ga>g|f<dc<f A>GG||

